X:1
T: Charlie's Wedding
C:
R:Reel
Q: 232
K:A
M:4/4
L:1/8
c1/2d1/2|ec cd eA ca|fd de f3e|dB Bc dB cd|fe dc e3c1/2d1/2|ec cd eA ca|aA de f3e|Bc de ed cB|A4 A3e|
ce eA cA eA|df fA dA fA|fa af af ec|BA Bc e3d|ce eA cA eA|df fA dA fA|Bc de ed cB|A4 A3e|
Ac BA cA Bc|AB cA B2 dc|Bd cB dB cd|ed cB c2 ec|Ac BA cA Bc|AB ce f3e|Bc de ed cB|A4 A3e|
af ea ce ac|ea ce a=g fe|=gB dg Bd gB|d=g BA Bc de|af ea ce ac|ea ce a=g fe|Bc de ed cB|A4 A3||
